X:1
T:Title
%%score { 1 | 2 }
L:1/8
M:3/4
K:G
V:1 treble nm="Grand Piano"
V:2 bass 
V:1
 z2 z2[Q:1/4=88] [B,D]2 | [DB]>[Ec] [DB]3 [^DA] | [EG][CE] [B,D]4 | [B,G]2 [B,D]2 [DB][DG] | %4
[M:5/8] [DA]2 [Fd]3 |[M:1/8] [Ec] |[M:3/4] [DB][Ec] [DB]3 [^DA] | [EG][CE] [B,D]4 | %8
 d2 B2 [B,D][DB] |[M:7/16] [CA]-<[CA][B,G]3/2 |[M:3/8] [B,G][CF][DG] |[M:3/4] [DA]3 [DA] [DG]A | %12
 B3 G AB | [Ec]3 [DB] [^CA]E |[M:3/8] A3 | [Fd][G^c][A=c] |[M:3/4] B3 B cd | [Ge]4 z2 | %18
[M:4/4] [Gd]3 [GB]- [GB]2 DB |[M:2/4] A2 [B,G]2 |] %20
V:2
 z2 z2 [G,,G,]2 | [G,,G,]>[G,,G,] [G,,G,]3 [B,,G,] | [C,C][C,G,] [G,,G,]4 | %3
 [G,,D,]2 [G,,G,]2 [G,,G,][B,,G,] |[M:5/8] [D,F,]2 [D,A,]3 |[M:1/8] [D,F,] | %6
[M:3/4] [G,,G,][G,,G,] [G,,G,]3 [B,,G,] | [C,C][C,G,] [G,,G,]4 | [G,B,D]2 [G,D]2 [G,,G,][G,,G,] | %9
[M:7/16] [D,F,]-<[D,F,][G,,G,]3/2 |[M:3/8] [G,,G,][A,,D,][B,,G,] | %11
[M:3/4] [D,F,]3 [C,F,] [B,,G,][D,F,D] | [G,D]3 [G,B,D] [F,A,D][G,=F] | %13
 [C,G,]3 [G,,G,] [A,,G,][^C,G,] |[M:3/8] [D,F,D]3 | [D,A,][E,A,][F,D] | %16
[M:3/4][K:treble] [G,DG]3 [G,DG] [A,DF][B,DG] | [C,C]4 z2 | %18
[M:4/4] [D,B,]3 [D,D]- [D,D]2 [D,B,][D,G,D] |[M:2/4] [D,F,C]2 [G,,D,G,]2 |] %20

